build/img/icons/file.svg

<svg width="24" height="24" viewBox="0 0 24 24" fill="none" xmlns="http://www.w3.org/2000/svg">
<path d="M19.5 22.5H8.25C7.8523 22.4996 7.471 22.3414 7.18978 22.0602C6.90856 21.779 6.7504 21.3977 6.75 21V16.5H8.25V21H19.5V4.5H12.75V3H19.5C19.8977 3.0004 20.279 3.15856 20.5602 3.43978C20.8414 3.721 20.9996 4.1023 21 4.5V21C20.9996 21.3977 20.8414 21.779 20.5602 22.0602C20.279 22.3414 19.8977 22.4996 19.5 22.5Z" fill="#5CC773"/>
<path d="M12.75 7.5H18V9H12.75V7.5Z" fill="#5CC773"/>
<path d="M12 11.25H18V12.75H12V11.25Z" fill="#5CC773"/>
<path d="M11.25 15H18V16.5H11.25V15Z" fill="#5CC773"/>
<path d="M6.75 14.25C5.75574 14.249 4.80249 13.8536 4.09945 13.1506C3.3964 12.4475 3.00099 11.4943 3 10.5V2.25H4.5V10.5C4.5 11.0967 4.73705 11.669 5.15901 12.091C5.58097 12.5129 6.15326 12.75 6.75 12.75C7.34674 12.75 7.91903 12.5129 8.34099 12.091C8.76295 11.669 9 11.0967 9 10.5V3.75C9 3.55109 8.92098 3.36032 8.78033 3.21967C8.63968 3.07902 8.44891 3 8.25 3C8.05109 3 7.86032 3.07902 7.71967 3.21967C7.57902 3.36032 7.5 3.55109 7.5 3.75V11.25H6V3.75C6 3.15326 6.23705 2.58097 6.65901 2.15901C7.08097 1.73705 7.65326 1.5 8.25 1.5C8.84674 1.5 9.41903 1.73705 9.84099 2.15901C10.2629 2.58097 10.5 3.15326 10.5 3.75V10.5C10.499 11.4943 10.1036 12.4475 9.40055 13.1506C8.69751 13.8536 7.74426 14.249 6.75 14.25Z" fill="#5CC773"/>
</svg>

<svg width="24" height="24" fill="none" xmlns="http://www.w3.org/2000/svg">
    <path d="M19.5 22.5H8.25a1.502 1.502 0 0 1-1.5-1.5v-4.5h1.5V21H19.5V4.5h-6.75V3h6.75A1.501 1.501 0 0 1 21 4.5V21a1.502 1.502 0 0 1-1.5 1.5z" fill="#5CC773"/>
    <path d="M12.75 7.5H18V9h-5.25V7.5zM12 11.25h6v1.5h-6v-1.5zM11.25 15H18v1.5h-6.75V15zM6.75 14.25A3.754 3.754 0 0 1 3 10.5V2.25h1.5v8.25a2.25 2.25 0 0 0 4.5 0V3.75a.75.75 0 0 0-1.5 0v7.5H6v-7.5a2.25 2.25 0 1 1 4.5 0v6.75a3.754 3.754 0 0 1-3.75 3.75z" fill="#5CC773"/>
</svg>
